dist/img/sprites/icon_1.svg

<svg width="66" height="45" viewBox="0 0 66 45" fill="none" xmlns="http://www.w3.org/2000/svg">
<path d="M33 29.95C34.7491 29.95 36.167 28.532 36.167 26.783C36.167 25.0339 34.7491 23.616 33 23.616C31.2509 23.616 29.833 25.0339 29.833 26.783C29.833 28.532 31.2509 29.95 33 29.95Z" stroke="white" stroke-miterlimit="10"/>
<path d="M10.3479 29.189L8.52594 30.6989L10.7239 31.5699L9.07092 33.261L11.3489 33.9L9.88193 35.7539L12.2129 36.15L10.9469 38.1479L13.3069 38.299L12.2569 40.416L14.6199 40.3199L14.1639 41.549H52.3419L51.8849 40.3199L54.2479 40.416L53.1989 38.299L55.5579 38.1479L54.2929 36.15L56.6229 35.7539L55.1559 33.9L57.4329 33.261L55.7809 31.5699L57.9779 30.6989L56.1579 29.189L58.2519 28.0919L56.2829 26.783L58.2519 25.472L56.1579 24.3749L57.9779 22.865L55.7809 21.994L57.4329 20.3029L55.1559 19.666L56.6229 17.81L54.2929 17.4139L55.5579 15.416L53.1989 15.2669L54.2479 13.1479L51.8849 13.244L52.7069 11.0269L50.3669 11.3709L50.9529 9.07996L48.6639 9.66595L49.0059 7.32596L46.7889 8.14996L46.8869 5.78696L44.7669 6.83594L44.6169 4.47595L42.6199 5.74194L42.2239 3.41196L40.3699 4.87894L39.7319 2.60095L38.0409 4.25394L37.1689 2.05594L35.6599 3.87695L34.5619 1.78296L33.2529 3.74994L31.9419 1.78296L30.8449 3.87695L29.3359 2.05594L28.4639 4.25394L26.7729 2.60095L26.1359 4.87894L24.2809 3.41196L23.8849 5.74194L21.8869 4.47595L21.7369 6.83594L19.6179 5.78696L19.7149 8.14996L17.4979 7.32596L17.8419 9.66595L15.5509 9.07996L16.1369 11.3709L13.7969 11.0269L14.6199 13.244L12.2569 13.1479L13.3069 15.2669L10.9469 15.416L12.2129 17.4139L9.88193 17.81L11.3489 19.666L9.07092 20.3029L10.7239 21.994L8.52594 22.865L10.3479 24.3749L8.25293 25.472L10.2209 26.783L8.25293 28.0919L10.3479 29.189Z" stroke="white" stroke-miterlimit="10"/>
<path d="M0.748047 44.2159H64.748" stroke="white" stroke-miterlimit="10" stroke-linecap="round" stroke-linejoin="round"/>
</svg>

<svg width="66" height="45" viewBox="0 0 66 45" fill="none" xmlns="http://www.w3.org/2000/svg"><path d="M33 29.95a3.167 3.167 0 100-6.334 3.167 3.167 0 000 6.334z" stroke="#fff" stroke-miterlimit="10"/><path d="M10.348 29.189l-1.822 1.51 2.198.87-1.653 1.692 2.278.639-1.467 1.854 2.33.396-1.265 1.998 2.36.151-1.05 2.117 2.363-.096-.456 1.229h38.178l-.457-1.23 2.363.097-1.05-2.117 2.36-.151-1.265-1.998 2.33-.396-1.467-1.854 2.277-.639-1.652-1.691 2.197-.871-1.82-1.51 2.094-1.097-1.97-1.309 1.97-1.311-2.094-1.097 1.82-1.51-2.197-.871 1.652-1.691-2.277-.637 1.467-1.856-2.33-.396 1.265-1.998-2.36-.15 1.05-2.118-2.363.096.822-2.217-2.34.344.586-2.291-2.29.586.343-2.34-2.217.824.098-2.363-2.12 1.049-.15-2.36-1.997 1.266-.396-2.33-1.854 1.467-.638-2.278-1.691 1.653-.872-2.198-1.51 1.82-1.097-2.093-1.31 1.967-1.31-1.967-1.097 2.094-1.51-1.821-.871 2.198L26.773 2.6l-.637 2.278-1.855-1.467-.396 2.33-1.998-1.266-.15 2.36-2.12-1.049.098 2.363-2.217-.824.344 2.34-2.291-.586.586 2.29-2.34-.343.823 2.217-2.363-.096 1.05 2.119-2.36.149 1.266 1.998-2.331.396 1.467 1.856-2.278.637 1.653 1.691-2.198.871 1.822 1.51-2.095 1.097 1.968 1.311-1.968 1.309 2.095 1.097z" stroke="#fff" stroke-miterlimit="10"/><path d="M.748 44.216h64" stroke="#fff" stroke-miterlimit="10" stroke-linecap="round" stroke-linejoin="round"/></svg>
